X:48
T:nyth y gwcw
R:rond
B:cwrtnewydd ms
O:traditional welsh
Z:crm
M:2/4
Q:1/4=90
K:Em
Bd|e3e- efge|dB{B}BA B2dB|ABde faef|d2B2 B2 Bd|
e2ef {f}-g2fe|dBGB d2BA|{A}GFGE D2BA|1 GAFG E2:|2 GAFG E4||
BGG{F}G EGG{F}G|BAGF E2FG|AFF{E}F DFF{E}F|AGFE D2EF|
{A}GFGE g2fe|dBGB d2BA|{A}GFGE D2BA|1 GAFG E2:|2 GAFG E4||
